packages/foundations/assets/icons/functional/images/technology/bug_28.svg

<svg width="28" height="28" viewBox="0 0 28 28" fill="none" xmlns="http://www.w3.org/2000/svg">
<g clip-path="url(#clip0_187_565)">
<path fill-rule="evenodd" clip-rule="evenodd" d="M23.0659 11.9627L25.7434 13.2096C26.1818 13.4126 26.3717 13.9341 26.1678 14.3716C26.019 14.6901 25.7032 14.8773 25.3742 14.8773C25.2508 14.8773 25.1248 14.8502 25.0058 14.7951L22.7054 13.7241L21 14.5501V16.1058L22.316 15.4679C22.5532 15.3524 22.8288 15.3507 23.0668 15.4618L25.7443 16.7087C26.1827 16.9117 26.3725 17.4332 26.1687 17.8707C26.0199 18.1892 25.704 18.3764 25.375 18.3764C25.2517 18.3764 25.1257 18.3493 25.0067 18.2942L22.7063 17.2232L21 18.0474V18.6582C21 18.9933 20.9668 19.3197 20.9195 19.6417L22.316 18.9653C22.5532 18.8507 22.8288 18.8489 23.0668 18.9601L25.7443 20.2069C26.1827 20.4099 26.3725 20.9314 26.1687 21.3689C25.9639 21.8073 25.4415 21.9954 25.0058 21.7924L22.7045 20.7214L20.1154 21.9762C18.9578 24.0027 16.7808 25.3747 14.2844 25.3747H13.7157C11.2202 25.3747 9.04228 24.0027 7.88465 21.9762L5.29553 20.7223L2.99428 21.7933C2.55678 21.9972 2.03615 21.8082 1.8314 21.3698C1.62753 20.9323 1.8174 20.4108 2.25578 20.2078L4.93328 18.9609C5.17215 18.8498 5.44778 18.8516 5.68403 18.9662L7.08053 19.6426C7.0324 19.3214 7.00003 18.9951 7.00003 18.6599V18.0492L5.29465 17.2232L2.99428 18.2942C2.87528 18.3502 2.75015 18.3764 2.6259 18.3764C2.2969 18.3764 1.98103 18.1892 1.83228 17.8707C1.6284 17.4332 1.81828 16.9117 2.25665 16.7087L4.93415 15.4618C5.17303 15.3507 5.44865 15.3524 5.6849 15.4679L7.0009 16.1058V14.5501L5.29553 13.7241L2.99515 14.7951C2.87615 14.8511 2.75103 14.8773 2.62678 14.8773C2.29778 14.8773 1.9819 14.6901 1.83315 14.3716C1.62928 13.9341 1.81915 13.4126 2.25753 13.2096L4.93503 11.9627C5.1739 11.8516 5.44953 11.8533 5.68578 11.9688L8.07628 13.1273H19.9247L22.3152 11.9688C22.5523 11.8533 22.8279 11.8516 23.0659 11.9627ZM19.2509 14.8764H8.7509V18.6599C8.7509 21.3987 10.9787 23.6264 13.7165 23.6264H14.2853C17.0232 23.6264 19.2509 21.3987 19.2509 18.6599V14.8764ZM14.8759 20.1256C15.3589 20.1256 15.7509 20.5167 15.7509 21.0006C15.7509 21.4844 15.3589 21.8756 14.8759 21.8756H13.1259C12.6429 21.8756 12.2509 21.4844 12.2509 21.0006C12.2509 20.5167 12.6429 20.1256 13.1259 20.1256H14.8759ZM16.625 16.6334C17.108 16.6334 17.5 17.0246 17.5 17.5084C17.5 17.9923 17.108 18.3834 16.625 18.3834H11.3628C10.8798 18.3834 10.4878 17.9923 10.4878 17.5084C10.4878 17.0246 10.8798 16.6334 11.3628 16.6334H16.625ZM19.0279 2.62619L19.1372 2.63781C19.6132 2.72093 19.9325 3.17331 19.8494 3.65018C19.628 4.91806 19.005 6.09056 18.0985 6.99706C18.9849 7.88168 19.6219 9.04193 19.8494 10.3492C19.908 10.6869 19.9378 11.0317 19.9378 11.3756C19.9378 11.8594 19.5458 12.2506 19.0628 12.2506H8.93728C8.45428 12.2506 8.06228 11.8594 8.06228 11.3756C8.06228 11.0317 8.09203 10.6869 8.15065 10.3492C8.37903 9.04106 9.01515 7.88081 9.90153 6.99706C8.99503 6.08968 8.37115 4.91806 8.15065 3.65018C8.06753 3.17331 8.3869 2.72093 8.8629 2.63781C9.34503 2.55731 9.79215 2.87406 9.87528 3.34918C10.0494 4.35018 10.584 5.25581 11.3427 5.92956C12.1529 5.49731 13.0577 5.24968 14 5.24968C14.9424 5.24968 15.8472 5.49731 16.6574 5.92956C17.416 5.25493 17.9507 4.34931 18.1248 3.34918C18.1951 2.94789 18.5305 2.65875 18.9203 2.62804L19.0279 2.62619ZM14.0009 7.00056C12.0925 7.00056 10.3215 8.52568 9.90503 10.5006H18.0968C17.6803 8.52568 15.9093 7.00056 14.0009 7.00056Z" fill="#1A1C1F"/>
</g>
<defs>
<clipPath id="clip0_187_565">
<rect width="28" height="28" fill="white"/>
</clipPath>
</defs>
</svg>

<svg xmlns="http://www.w3.org/2000/svg" width="28" height="28" fill="none"><g clip-path="url(#a)"><path fill="#1A1C1F" fill-rule="evenodd" d="m23.066 11.963 2.677 1.247a.874.874 0 1 1-.737 1.585l-2.3-1.07L21 14.55v1.556l1.316-.638a.87.87 0 0 1 .75-.006l2.678 1.247a.874.874 0 1 1-.737 1.585l-2.3-1.07-1.707.823v.611c0 .335-.033.662-.08.984l1.396-.677a.88.88 0 0 1 .75-.005l2.678 1.247a.874.874 0 1 1-.738 1.585l-2.302-1.07-2.589 1.254a6.72 6.72 0 0 1-5.83 3.399h-.57a6.72 6.72 0 0 1-5.83-3.399l-2.59-1.254-2.3 1.071a.875.875 0 0 1-.74-1.585l2.678-1.247a.88.88 0 0 1 .751.005l1.397.677A6.6 6.6 0 0 1 7 18.66v-.61l-1.705-.827-2.3 1.071a.876.876 0 0 1-.738-1.585l2.677-1.247a.87.87 0 0 1 .75.006l1.317.638V14.55l-1.705-.826-2.3 1.071a.876.876 0 0 1-.738-1.585l2.677-1.247a.87.87 0 0 1 .75.006l2.391 1.158h11.849l2.39-1.158a.87.87 0 0 1 .75-.006m-3.815 2.913H8.75v3.784a4.97 4.97 0 0 0 4.966 4.966h.568a4.97 4.97 0 0 0 4.966-4.966zm-4.375 5.25a.875.875 0 1 1 0 1.75h-1.75a.875.875 0 1 1 0-1.75zm1.749-3.493a.875.875 0 1 1 0 1.75h-5.262a.875.875 0 1 1 0-1.75zm2.403-14.007.11.012a.875.875 0 0 1 .711 1.012 6.3 6.3 0 0 1-1.75 3.347 6.26 6.26 0 0 1 1.75 3.352q.089.509.089 1.027a.875.875 0 0 1-.875.875H8.937a.875.875 0 0 1-.875-.875c0-.344.03-.69.089-1.027A6.26 6.26 0 0 1 9.9 6.997a6.3 6.3 0 0 1-1.75-3.347.875.875 0 0 1 1.724-.3c.174 1 .709 1.906 1.468 2.58A5.64 5.64 0 0 1 14 5.25c.942 0 1.847.247 2.657.68.759-.675 1.294-1.58 1.468-2.58a.88.88 0 0 1 .795-.722zM14 7.001c-1.908 0-3.68 1.525-4.096 3.5h8.192C17.68 8.526 15.909 7 14 7" clip-rule="evenodd"/></g><defs><clipPath id="a"><path fill="#fff" d="M0 0h28v28H0z"/></clipPath></defs></svg>
